static/img/kroki/ac2393c54e51d7feda91157060ba3b44.svg

<?xml version="1.0" encoding="us-ascii" standalone="no"?><svg xmlns="http://www.w3.org/2000/svg" xmlns:xlink="http://www.w3.org/1999/xlink" contentStyleType="text/css" height="152px" preserveAspectRatio="none" style="width:531px;height:152px;" version="1.1" viewBox="0 0 531 152" width="531px" zoomAndPan="magnify"><defs/><g><!--class azure_network_dscp_configuration--><g id="elem_azure_network_dscp_configuration"><rect codeLine="23" fill="#3D176E" height="39.7891" id="azure_network_dscp_configuration" rx="2.5" ry="2.5" style="stroke:#000D19;stroke-width:0.5;" width="332" x="104" y="106.79"/><ellipse cx="119" cy="126.6845" fill="#ADD1B2" rx="11" ry="11" style="stroke:#181818;stroke-width:1.0;"/><path d="M121.9688,132.3252 Q121.3906,132.622 120.75,132.7627 Q120.1094,132.9189 119.4063,132.9189 Q116.9063,132.9189 115.5781,131.2783 Q114.2656,129.622 114.2656,126.497 Q114.2656,123.372 115.5781,121.7158 Q116.9063,120.0595 119.4063,120.0595 Q120.1094,120.0595 120.75,120.2158 Q121.4063,120.372 121.9688,120.6689 L121.9688,123.3877 Q121.3438,122.8095 120.75,122.5439 Q120.1563,122.2627 119.5313,122.2627 Q118.1875,122.2627 117.5,123.3408 Q116.8125,124.4033 116.8125,126.497 Q116.8125,128.5908 117.5,129.6689 Q118.1875,130.7314 119.5313,130.7314 Q120.1563,130.7314 120.75,130.4658 Q121.3438,130.1845 121.9688,129.6064 L121.9688,132.3252 Z " fill="#000000"/><text fill="#D9B8FF" font-family="Helvetica" font-size="17" lengthAdjust="spacing" textLength="290" x="138" y="132.5698">azure_network_dscp_configuration</text></g><!--class azure_network_interface--><g id="elem_azure_network_interface"><rect codeLine="26" fill="#3D176E" height="39.7891" id="azure_network_interface" rx="2.5" ry="2.5" style="stroke:#000D19;stroke-width:0.5;" width="250" x="7" y="7"/><ellipse cx="22" cy="26.8945" fill="#ADD1B2" rx="11" ry="11" style="stroke:#181818;stroke-width:1.0;"/><path d="M24.9688,32.5352 Q24.3906,32.832 23.75,32.9727 Q23.1094,33.1289 22.4063,33.1289 Q19.9063,33.1289 18.5781,31.4883 Q17.2656,29.832 17.2656,26.707 Q17.2656,23.582 18.5781,21.9258 Q19.9063,20.2695 22.4063,20.2695 Q23.1094,20.2695 23.75,20.4258 Q24.4063,20.582 24.9688,20.8789 L24.9688,23.5977 Q24.3438,23.0195 23.75,22.7539 Q23.1563,22.4727 22.5313,22.4727 Q21.1875,22.4727 20.5,23.5508 Q19.8125,24.6133 19.8125,26.707 Q19.8125,28.8008 20.5,29.8789 Q21.1875,30.9414 22.5313,30.9414 Q23.1563,30.9414 23.75,30.6758 Q24.3438,30.3945 24.9688,29.8164 L24.9688,32.5352 Z " fill="#000000"/><text fill="#D9B8FF" font-family="Helvetica" font-size="17" lengthAdjust="spacing" textLength="208" x="41" y="32.7798">azure_network_interface</text></g><!--class azure_network_subnet--><g id="elem_azure_network_subnet"><rect codeLine="29" fill="#3D176E" height="39.7891" id="azure_network_subnet" rx="2.5" ry="2.5" style="stroke:#000D19;stroke-width:0.5;" width="233" x="291.5" y="7"/><ellipse cx="306.5" cy="26.8945" fill="#ADD1B2" rx="11" ry="11" style="stroke:#181818;stroke-width:1.0;"/><path d="M309.4688,32.5352 Q308.8906,32.832 308.25,32.9727 Q307.6094,33.1289 306.9063,33.1289 Q304.4063,33.1289 303.0781,31.4883 Q301.7656,29.832 301.7656,26.707 Q301.7656,23.582 303.0781,21.9258 Q304.4063,20.2695 306.9063,20.2695 Q307.6094,20.2695 308.25,20.4258 Q308.9063,20.582 309.4688,20.8789 L309.4688,23.5977 Q308.8438,23.0195 308.25,22.7539 Q307.6563,22.4727 307.0313,22.4727 Q305.6875,22.4727 305,23.5508 Q304.3125,24.6133 304.3125,26.707 Q304.3125,28.8008 305,29.8789 Q305.6875,30.9414 307.0313,30.9414 Q307.6563,30.9414 308.25,30.6758 Q308.8438,30.3945 309.4688,29.8164 L309.4688,32.5352 Z " fill="#000000"/><text fill="#D9B8FF" font-family="Helvetica" font-size="17" lengthAdjust="spacing" textLength="191" x="325.5" y="32.7798">azure_network_subnet</text></g><!--link azure_network_interface to azure_network_dscp_configuration--><g id="link_azure_network_interface_azure_network_dscp_configuration"><path codeLine="32" d="M159.26,47.22 C183.46,64.36 213.7257,85.7993 237.8957,102.9393 " fill="none" id="azure_network_interface-to-azure_network_dscp_configuration" style="stroke:#1A83AF;stroke-width:2.0;"/><polygon fill="#1A83AF" points="242.79,106.41,237.7624,97.941,238.7114,103.5177,233.1348,104.4667,242.79,106.41" style="stroke:#1A83AF;stroke-width:2.0;"/></g><!--link azure_network_subnet to azure_network_dscp_configuration--><g id="link_azure_network_subnet_azure_network_dscp_configuration"><path codeLine="33" d="M380.74,47.22 C356.54,64.36 326.2743,85.7993 302.1043,102.9393 " fill="none" id="azure_network_subnet-to-azure_network_dscp_configuration" style="stroke:#1A83AF;stroke-width:2.0;"/><polygon fill="#1A83AF" points="297.21,106.41,306.8652,104.4667,301.2886,103.5177,302.2376,97.941,297.21,106.41" style="stroke:#1A83AF;stroke-width:2.0;"/></g><!--SRC=[bP11IyD048Nl-HKBFHSIYxQz2B5Gz5B4UXC9aztPTaco6sOdbbRyxxPMPKsQ5c_Bl6_VUpDher1WLVDML5ZbI3xoXR4r45GY9NARcIiTYO7Me4VZjZXtbYy22wXGt6FvXcmaj8ddjP65HU_5LI3TWInMv1ghZlPCOFrUGii1DIl1-vIPJDum1cNKD9zetIRRfeEHIiOtsC4SAQHl98vZbKpRoCMeitl_4akpGv64HriunaxDJiGNTRRbWGXATXRzqNixFe9Ingx4TJ1xEdOYY_Hdlbo3Sfi3hQ7qOOnd97IyhN7MsGgd4wN79-67FZYIXzC9s3M4cKNUE2eovMMTIMUrMJK4R9mLxr7qSP8rTX-YGM8_ufjy_ppgVP-7BuCadOpI-UlmzcARwAJ__om-0G00]--></g></svg>

<svg xmlns="http://www.w3.org/2000/svg" width="531" height="152" viewBox="0 0 531 152"><rect width="332" height="39.789" x="104" y="106.79" fill="#3D176E" rx="2.5" ry="2.5" style="stroke:#000d19;stroke-width:.5"/><circle cx="119" cy="126.684" r="11" fill="#ADD1B2" style="stroke:#181818;stroke-width:1"/><path d="M121.969 132.325q-.578.297-1.219.438-.64.156-1.344.156-2.5 0-3.828-1.64-1.312-1.657-1.312-4.782t1.312-4.781q1.328-1.656 3.828-1.656.703 0 1.344.156.656.156 1.219.453v2.719q-.625-.579-1.219-.844-.594-.281-1.219-.281-1.344 0-2.031 1.078-.687 1.062-.687 3.156t.687 3.172q.688 1.062 2.031 1.062.625 0 1.219-.265.594-.281 1.219-.86z"/><text x="138" y="132.57" fill="#D9B8FF" font-family="Helvetica" font-size="17" textLength="290">azure_network_dscp_configuration</text><rect width="250" height="39.789" x="7" y="7" fill="#3D176E" rx="2.5" ry="2.5" style="stroke:#000d19;stroke-width:.5"/><circle cx="22" cy="26.895" r="11" fill="#ADD1B2" style="stroke:#181818;stroke-width:1"/><path d="M24.969 32.535q-.578.297-1.219.438-.64.156-1.344.156-2.5 0-3.828-1.64-1.312-1.657-1.312-4.782t1.312-4.781q1.328-1.656 3.828-1.656.703 0 1.344.156.656.156 1.219.453v2.719q-.625-.578-1.219-.844-.594-.281-1.219-.281-1.343 0-2.031 1.078-.687 1.062-.687 3.156t.687 3.172q.688 1.062 2.031 1.062.625 0 1.219-.265.594-.281 1.219-.86z"/><text x="41" y="32.78" fill="#D9B8FF" font-family="Helvetica" font-size="17" textLength="208">azure_network_interface</text><rect width="233" height="39.789" x="291.5" y="7" fill="#3D176E" rx="2.5" ry="2.5" style="stroke:#000d19;stroke-width:.5"/><circle cx="306.5" cy="26.895" r="11" fill="#ADD1B2" style="stroke:#181818;stroke-width:1"/><path d="M309.469 32.535q-.578.297-1.219.438-.64.156-1.344.156-2.5 0-3.828-1.64-1.312-1.657-1.312-4.782t1.312-4.781q1.328-1.656 3.828-1.656.703 0 1.344.156.656.156 1.219.453v2.719q-.625-.578-1.219-.844-.594-.281-1.219-.281-1.344 0-2.031 1.078-.687 1.062-.687 3.156t.687 3.172q.688 1.062 2.031 1.062.625 0 1.219-.265.594-.281 1.219-.86z"/><text x="325.5" y="32.78" fill="#D9B8FF" font-family="Helvetica" font-size="17" textLength="191">azure_network_subnet</text><path fill="none" d="M159.26 47.22c24.2 17.14 54.466 38.58 78.636 55.72" style="stroke:#1a83af;stroke-width:2"/><path fill="#1A83AF" d="m242.79 106.41-5.028-8.469.95 5.577-5.577.949z" style="stroke:#1a83af;stroke-width:2"/><path fill="none" d="M380.74 47.22c-24.2 17.14-54.466 38.58-78.636 55.72" style="stroke:#1a83af;stroke-width:2"/><path fill="#1A83AF" d="m297.21 106.41 9.655-1.943-5.576-.95.949-5.576z" style="stroke:#1a83af;stroke-width:2"/></svg>
